humanity-icon-theme/Humanity/actions/24/help-contents.svg

<?xml version="1.0" encoding="UTF-8" standalone="no"?>
<!-- Created with Inkscape (http://www.inkscape.org/) -->
<svg
   xmlns:svg="http://www.w3.org/2000/svg"
   xmlns="http://www.w3.org/2000/svg"
   xmlns:xlink="http://www.w3.org/1999/xlink"
   version="1.0"
   width="24"
   height="24"
   id="svg2">
  <defs
     id="defs4">
    <linearGradient
       id="linearGradient8838">
      <stop
         id="stop8840"
         style="stop-color:#000000;stop-opacity:1"
         offset="0" />
      <stop
         id="stop8842"
         style="stop-color:#000000;stop-opacity:0"
         offset="1" />
    </linearGradient>
    <radialGradient
       cx="62.625"
       cy="4.625"
       r="10.625"
       fx="62.625"
       fy="4.625"
       id="radialGradient2487"
       xlink:href="#linearGradient8838"
       gradientUnits="userSpaceOnUse"
       gradientTransform="matrix(1.1294118,0,0,0.2823525,-58.729414,19.694118)" />
    <linearGradient
       id="linearGradient2490-182-124">
      <stop
         id="stop2788"
         style="stop-color:#1f4b6a;stop-opacity:1"
         offset="0" />
      <stop
         id="stop2790"
         style="stop-color:#4083c2;stop-opacity:1"
         offset="1" />
    </linearGradient>
    <linearGradient
       x1="18.379412"
       y1="44.980297"
       x2="18.379412"
       y2="3.0816143"
       id="linearGradient2484"
       xlink:href="#linearGradient2490-182-124"
       gradientUnits="userSpaceOnUse"
       gradientTransform="matrix(0.5160413,0,0,0.5160413,-0.384991,-0.3849911)" />
    <linearGradient
       id="linearGradient3242-187-536">
      <stop
         id="stop2778"
         style="stop-color:#8badea;stop-opacity:1"
         offset="0" />
      <stop
         id="stop2780"
         style="stop-color:#6396cd;stop-opacity:1"
         offset="0.26238" />
      <stop
         id="stop2782"
         style="stop-color:#3b7caf;stop-opacity:1"
         offset="0.66093999" />
      <stop
         id="stop2784"
         style="stop-color:#194c70;stop-opacity:1"
         offset="1" />
    </linearGradient>
    <radialGradient
       cx="23.895569"
       cy="3.9900031"
       r="20.397499"
       fx="23.895569"
       fy="3.9900031"
       id="radialGradient2482"
       xlink:href="#linearGradient3242-187-536"
       gradientUnits="userSpaceOnUse"
       gradientTransform="matrix(0,1.2316137,-1.6257082,0,18.486581,-28.720783)" />
    <linearGradient
       id="linearGradient4873">
      <stop
         id="stop4875"
         style="stop-color:#ffffff;stop-opacity:1"
         offset="0" />
      <stop
         id="stop4877"
         style="stop-color:#ffffff;stop-opacity:0"
         offset="1" />
    </linearGradient>
    <linearGradient
       x1="63.397362"
       y1="-12.489107"
       x2="63.397362"
       y2="5.4675598"
       id="linearGradient2479"
       xlink:href="#linearGradient4873"
       gradientUnits="userSpaceOnUse"
       gradientTransform="matrix(1.0862728,0,0,1.0862481,-55.56661,15.813638)" />
  </defs>
  <g
     id="layer1">
    <path
       d="M 24,21 C 24,22.656854 18.627417,24 12,24 C 5.3725828,24 -2.5e-07,22.656854 -2.5e-07,21 C -2.5e-07,19.343146 5.3725828,18 12,18 C 18.627417,18 24,19.343146 24,21 L 24,21 z"
       id="path8836"
       style="opacity:0.3;fill:url(#radialGradient2487);fill-opacity:1;fill-rule:evenodd;stroke:none;stroke-width:0.99999988;stroke-linecap:butt;stroke-linejoin:round;marker:none;marker-start:none;marker-mid:none;marker-end:none;stroke-miterlimit:4;stroke-dasharray:none;stroke-dashoffset:0;stroke-opacity:1;visibility:visible;display:inline;overflow:visible" />
    <path
       d="M 12.000002,1.501785 C 6.207449,1.501785 1.501785,6.2074466 1.501785,11.999999 C 1.501785,17.792553 6.207449,22.498218 12.000002,22.498215 C 17.792552,22.498215 22.498221,17.792553 22.498215,11.999999 C 22.498215,6.2074466 17.792552,1.501785 12.000002,1.501785 z"
       id="path2555"
       style="fill:url(#radialGradient2482);fill-opacity:1;stroke:url(#linearGradient2484);stroke-width:1.00365424;stroke-linecap:round;stroke-linejoin:round;stroke-miterlimit:4;stroke-dasharray:none;stroke-dashoffset:0;stroke-opacity:1" />
    <path
       d="M 21.499999,11.999663 C 21.499999,17.246537 17.24639,21.499999 12.00012,21.499999 C 6.7533674,21.499999 2.4999999,17.24649 2.4999999,11.999663 C 2.4999999,6.7530318 6.7533674,2.5000007 12.00012,2.5000007 C 17.24639,2.5000007 21.499999,6.7530318 21.499999,11.999663 L 21.499999,11.999663 z"
       id="path2463"
       style="opacity:0.4;fill:none;fill-opacity:1;fill-rule:nonzero;stroke:url(#linearGradient2479);stroke-width:0.99999994;stroke-miterlimit:4;stroke-dasharray:none;stroke-opacity:1" />
    <path
       d="M 12.455219,14.081774 C 12.422179,12.902393 12.686406,11.757466 13.800654,10.94647 C 14.977584,10.029286 16.111061,8.8817637 15.991276,7.5290943 C 15.965121,6.2245668 14.445156,5.2023273 12.807503,5.0553479 C 10.96541,4.8001549 8.7364896,5.4312157 8.1192159,6.8698186 C 7.8061491,7.5695064 8.096465,8.8248269 9.1471134,8.8248269 C 9.7616394,8.8248269 10.043895,8.4278602 10.090265,8.0647284 C 10.125349,7.7899714 10.012548,7.544616 9.9459321,7.3176647 C 9.8700267,7.0590683 10.194058,6.5578819 10.546974,6.3536788 C 10.841875,6.1830422 11.150417,6.1258249 11.195897,6.1148943 C 12.25497,5.8603717 13.310713,6.4225779 13.751187,7.1068508 C 14.191662,7.7911238 13.706833,8.8290335 13.00976,9.8383604 C 12.312686,10.847688 11.564602,11.994078 11.56759,13.211732 C 11.56759,13.675293 11.526287,13.832775 11.555634,14.020321 C 11.579082,14.170164 12.075247,14.152056 12.455219,14.081774 z M 11.971892,15.669158 C 10.95925,15.614185 10.258363,16.762156 10.866707,17.493571 C 11.409988,18.301124 12.93322,18.101773 13.194302,17.1873 C 13.465732,16.476179 12.81253,15.657287 11.971892,15.669157 L 11.971892,15.669158 z"
       id="path9053"
       style="font-size:72px;font-style:normal;font-weight:bold;opacity:0.2;fill:#000000;fill-opacity:1;stroke:none;stroke-width:0.75;stroke-linecap:round;stroke-linejoin:round;stroke-miterlimit:4;stroke-dasharray:none;stroke-opacity:1;font-family:Standard Symbols L" />
    <path
       d="M 12.455219,15.081774 C 12.422179,13.902393 12.686406,12.757465 13.800654,11.94647 C 14.977584,11.029286 16.111061,9.8817633 15.991276,8.5290939 C 15.965121,7.2245664 14.445156,6.2023279 12.807503,6.0553476 C 10.96541,5.8001545 8.7364896,6.4312153 8.1192159,7.8698182 C 7.8061491,8.5695061 8.096465,9.8248274 9.1471134,9.8248274 C 9.7616394,9.8248274 10.043895,9.4278598 10.090265,9.064728 C 10.125349,8.789971 10.012548,8.5446165 9.9459321,8.3176643 C 9.8700267,8.0590689 10.194058,7.5578815 10.546974,7.3536794 C 10.841875,7.1830418 11.150417,7.1258255 11.195897,7.1148948 C 12.25497,6.8603722 13.310713,7.4225776 13.751187,8.1068514 C 14.191662,8.7911243 13.706833,9.829034 13.00976,10.838362 C 12.312686,11.847688 11.564602,12.994078 11.56759,14.211731 C 11.56759,14.675293 11.526287,14.832775 11.555634,15.020321 C 11.579082,15.170165 12.075247,15.152056 12.455219,15.081774 z M 11.971892,16.669157 C 10.95925,16.614185 10.258363,17.762157 10.866707,18.49357 C 11.409988,19.301124 12.93322,19.101774 13.194302,18.187299 C 13.465732,17.476179 12.81253,16.657287 11.971892,16.669157 L 11.971892,16.669157 z"
       id="path3298"
       style="font-size:72px;font-style:normal;font-weight:bold;fill:#ffffff;fill-opacity:1;stroke:none;stroke-width:0.75;stroke-linecap:round;stroke-linejoin:round;stroke-miterlimit:4;stroke-dasharray:none;stroke-opacity:1;font-family:Standard Symbols L" />
  </g>
</svg>

<?xml version="1.0" encoding="UTF-8" standalone="no"?>
<!-- Created with Inkscape (http://www.inkscape.org/) -->
<svg id="svg2" xmlns="http://www.w3.org/2000/svg" height="24" width="24" version="1.0" xmlns:xlink="http://www.w3.org/1999/xlink">
 <defs id="defs4">
  <radialGradient id="radialGradient2487" gradientUnits="userSpaceOnUse" cy="4.625" cx="62.625" gradientTransform="matrix(1.1294 0 0 .28235 -58.729 19.694)" r="10.625">
   <stop id="stop8840" offset="0"/>
   <stop id="stop8842" style="stop-opacity:0" offset="1"/>
  </radialGradient>
  <linearGradient id="linearGradient2484" y2="3.0816" gradientUnits="userSpaceOnUse" x2="18.379" gradientTransform="matrix(.51604 0 0 .51604 -.38499 -.38499)" y1="44.98" x1="18.379">
   <stop id="stop2788" style="stop-color:#1f4b6a" offset="0"/>
   <stop id="stop2790" style="stop-color:#4083c2" offset="1"/>
  </linearGradient>
  <radialGradient id="radialGradient2482" gradientUnits="userSpaceOnUse" cy="3.99" cx="23.896" gradientTransform="matrix(0 1.2316 -1.6257 0 18.487 -28.721)" r="20.397">
   <stop id="stop2778" style="stop-color:#8badea" offset="0"/>
   <stop id="stop2780" style="stop-color:#6396cd" offset=".26238"/>
   <stop id="stop2782" style="stop-color:#3b7caf" offset=".66094"/>
   <stop id="stop2784" style="stop-color:#194c70" offset="1"/>
  </radialGradient>
  <linearGradient id="linearGradient2479" y2="5.4676" gradientUnits="userSpaceOnUse" x2="63.397" gradientTransform="matrix(1.0863 0 0 1.0862 -55.567 15.814)" y1="-12.489" x1="63.397">
   <stop id="stop4875" style="stop-color:#fff" offset="0"/>
   <stop id="stop4877" style="stop-color:#fff;stop-opacity:0" offset="1"/>
  </linearGradient>
 </defs>
 <g id="layer1">
  <path id="path8836" style="opacity:.3;fill-rule:evenodd;fill:url(#radialGradient2487)" d="m24 21c0 1.657-5.373 3-12 3-6.6274 0-12-1.343-12-3-2.5e-7 -1.657 5.3726-3 12-3 6.627 0 12 1.343 12 3z"/>
  <path id="path2555" style="stroke-linejoin:round;stroke:url(#linearGradient2484);stroke-linecap:round;stroke-width:1.0037;fill:url(#radialGradient2482)" d="m12 1.5018c-5.7926 0-10.498 4.7056-10.498 10.498-0.0002 5.793 4.7054 10.498 10.498 10.498 5.793 0 10.498-4.705 10.498-10.498 0-5.7926-4.705-10.498-10.498-10.498z"/>
  <path id="path2463" style="opacity:.4;stroke:url(#linearGradient2479);fill:none" d="m21.5 12c0 5.247-4.254 9.5-9.5 9.5-5.2466 0-9.5-4.254-9.5-9.5 0-5.247 4.2534-9.5 9.5-9.5 5.246 0 9.5 4.253 9.5 9.5z"/>
  <path id="path9053" style="opacity:.2" d="m12.455 14.082c-0.033-1.18 0.231-2.325 1.346-3.136 1.177-0.917 2.31-2.0642 2.19-3.4169-0.026-1.3045-1.546-2.3268-3.183-2.4738-1.843-0.2551-4.0715 0.3759-4.6888 1.8145-0.3131 0.6997-0.0227 1.955 1.0279 1.955 0.6145 0 0.8969-0.3969 0.9429-0.7601 0.035-0.2747-0.077-0.5201-0.1441-0.747-0.0759-0.2586 0.2481-0.7598 0.6011-0.964 0.295-0.1707 0.603-0.2279 0.649-0.2388 1.059-0.2545 2.115 0.3077 2.555 0.992 0.441 0.6842-0.044 1.7221-0.741 2.7315-0.697 1.0096-1.445 2.1556-1.442 3.3736 0 0.463-0.042 0.621-0.012 0.808 0.023 0.15 0.519 0.132 0.899 0.062zm-0.483 1.587c-1.013-0.055-1.714 1.093-1.105 1.825 0.543 0.807 2.066 0.608 2.327-0.307 0.272-0.711-0.381-1.53-1.222-1.518z"/>
  <path id="path3298" style="fill:#fff" d="m12.455 15.082c-0.033-1.18 0.231-2.325 1.346-3.136 1.177-0.917 2.31-2.0642 2.19-3.4169-0.026-1.3045-1.546-2.3268-3.183-2.4738-1.843-0.2551-4.0715 0.3759-4.6888 1.8145-0.3131 0.6997-0.0227 1.955 1.0279 1.955 0.6145 0 0.8969-0.3969 0.9429-0.7601 0.035-0.2747-0.077-0.5201-0.1441-0.747-0.0759-0.2586 0.2481-0.7598 0.6011-0.964 0.295-0.1707 0.603-0.2279 0.649-0.2388 1.059-0.2545 2.115 0.3077 2.555 0.992 0.441 0.6842-0.044 1.7221-0.741 2.7311-0.697 1.01-1.445 2.156-1.442 3.374 0 0.463-0.042 0.621-0.012 0.808 0.023 0.15 0.519 0.132 0.899 0.062zm-0.483 1.587c-1.013-0.055-1.714 1.093-1.105 1.825 0.543 0.807 2.066 0.608 2.327-0.307 0.272-0.711-0.381-1.53-1.222-1.518z"/>
 </g>
</svg>
